X:12
T: Trip to Hanover (2d. Part). Ca1758.036, The
M:C|
L:1/8
Q:1/4=120
B:Cahusac,T. 24 Country Dances for the Year 1758
Z:vmp.Mike Hicken 2015 www.village-music-project.org.uk
N:* There is no repeat sign shown here in the original.
K:Gm
G/A/B/c/ dc BABG|^F/G/A/B/ cB AG^FD|G/A/B/c/ dc BABG|B2c2d4:|
|:d2 Bc/d/ eded|c2 AB/c/ dcdc|G/A/B/c/ dc BABG|A2^F2 G4 "*" :|
W:
W: The 1st. Cu. set and turn .|  change
W: sides foot it and turn :|  cast off
W: half figure and Right and Left :|

